X:7970
T:Jig of Slurs
R:jig
C:G.S. MacLellan
M:6/8
L:1/8
K:D
Add dcd | Bdd Add | Bdd Add | Bee edB | Add dcd | Bdd Add | Bdd ced | fdd d2B ::
Aff fef | aff fed | Bee ede | fee edB | Aff fef | aff fed | Bdd cee | fdd d2B ::
Ggg gfg | age gdB | Ggg gfg | age g2B | Ggg gfg | age gdB | Bee egg | fdd e2B ::
GBB Bdd | dee edB | GBB Bdd | dee egg | GBB Bdd | dee edB | Bee egg | fdd e3  ::
